!!!COM: Angelo Berardi
!!!OPR: Documenti Armonici
!!!ONB: Canon at the fourth below after a semibreve, CF below
!!!PPR: Giacomo Monti
!!!PDT: 1687
!!!PPP: Bologna
!!!ONB: Reprint ed., Bologna: Forni., 1970.  Bk II p. 93.
!!!ONB: Transcribed from Angelo Berardi, Documenti Armonici, 1687,
**kern	**kern	**kern
*CF	*conseq	*guida
*k[]	*k[]	*k[]
*M4/4	*M4/4	*M4/4
=1-	=1-	=1-
1D	1r	2d
.	.	4.f
.	.	8g
=2	=2	=2
1F	2A	4a
.	.	4.f
.	4.c	.
.	.	8g
.	.	4a
.	8d	.
=3	=3	=3
1C	4e	4g
.	4.c	4e
.	.	4.g
.	8d	.
.	4e	.
.	.	8a
=4	=4	=4
1G	4d	8b
.	.	8cc
.	4B	2dd
.	4.d	.
.	.	[4d
.	8e	.
=5	=5	=5
1D	8f	8d]
.	8g	8e
.	2a	4.f
.	.	8g
.	[4A	4a
=6	=6	=6
1A	8A]	4r
.	8B	.
.	4.c	4cc
.	.	4cc
.	8d	.
.	4e	4cc
=7	=7	=7
1G	4r	4dd
.	4g	4.b
.	4g	.
.	.	8cc
.	4g	[4dd
=8	=8	=8
1F	4a	4dd]
.	4.f	4dd
.	.	[2cc
.	8g	.
.	[4a	.
=9	=9	=9
1E	4a]	2cc]
.	4a	.
.	[2g	4b
.	.	4a
=10	=10	=10
[1D	2g]	2b
.	4f#	4a
.	4e	4g
=11	=11	=11
1D_	[1f#	[1a
=12	=12	=12
1D]	1f#]	1a]
==	==	==
*-	*-	*-
!!!CDT: ~1636//-1694/4/9
!!!CNT: Italia
!!!ODT: <1687//
!!!YEP: David Huron and Denis Collins
!!!YEN: Canada
!!!AIN: vox; ?
!!!AST: polyphony
!!!RDT: 1995 July 3
!!!YED: 1995 August 31
!!!AFR: cantus firmus canon
!!!AMT: simple quadruple
!!!EEV: 1.0
